src/images/icons/carier.svg

<svg width="22" height="22" viewBox="0 0 22 22" fill="none" xmlns="http://www.w3.org/2000/svg">
<path d="M12.7289 2.51063L14.4889 6.03063C14.7289 6.52063 15.3689 6.99063 15.9089 7.08063L19.0989 7.61062C21.1389 7.95062 21.6189 9.43062 20.1489 10.8906L17.6689 13.3706C17.2489 13.7906 17.0189 14.6006 17.1489 15.1806L17.8589 18.2506C18.4189 20.6806 17.1289 21.6206 14.9789 20.3506L11.9889 18.5806C11.4489 18.2606 10.5589 18.2606 10.0089 18.5806L7.01893 20.3506C4.87893 21.6206 3.57893 20.6706 4.13893 18.2506L4.84893 15.1806C4.97893 14.6006 4.74893 13.7906 4.32893 13.3706L1.84893 10.8906C0.388932 9.43062 0.858933 7.95062 2.89893 7.61062L6.08893 7.08063C6.61893 6.99063 7.25893 6.52063 7.49893 6.03063L9.25893 2.51063C10.2189 0.600625 11.7789 0.600625 12.7289 2.51063Z" stroke="white" stroke-width="2" stroke-linecap="round" stroke-linejoin="round"/>
</svg>

<svg width="22" height="22" fill="none" xmlns="http://www.w3.org/2000/svg"><path d="m12.729 2.51 1.76 3.52c.24.49.88.96 1.42 1.05l3.19.53c2.04.34 2.52 1.82 1.05 3.28l-2.48 2.48c-.42.42-.65 1.23-.52 1.81l.71 3.07c.56 2.43-.73 3.37-2.88 2.1l-2.99-1.77c-.54-.32-1.43-.32-1.98 0l-2.99 1.77c-2.14 1.27-3.44.32-2.88-2.1l.71-3.07c.13-.58-.1-1.39-.52-1.81l-2.48-2.48c-1.46-1.46-.99-2.94 1.05-3.28l3.19-.53c.53-.09 1.17-.56 1.41-1.05l1.76-3.52c.96-1.91 2.52-1.91 3.47 0Z" stroke="#fff" stroke-width="2" stroke-linecap="round" stroke-linejoin="round"/></svg>
